X:1
T:Crewdson, 76.76.76.76.76
T:Ira David Sankey (1840-1908)
T:Crewdson, 76.76.76.76.76
T:Public Domain
C:Ira David Sankey (1840-1908)
Z:Public Domain
%%score ( 1 2 ) ( 3 4 )
L:1/8
M:6/8
K:E
V:1 treble 
V:2 treble 
V:3 bass 
V:4 bass 
V:1
 (E/G/) | [GB]2 [=G^A] [^GB]2 [=Ac] | [GB]3 [EG]2 E | [EG]2 [FA] (GF)E | [DF]3 z2 (E/G/) | %5
 [GB]2 [=G^A] [^GB]2 [=Ac] | [GB]3 [EG]2 [EG] | [DF]2 [FB] (^AB)[Ec] | [DB]3 z2 [DA] | %9
 (AF)[B,E] (Dc)[DB] | [EB]3 [EG]2 [DA] | (AF)[B,E] (DB)[DF] | [EG]3 z2 [EG] | %13
 [EG]2 [EG] [EA]2 [EA] | [EG]3 [B,E]2 [B,E] | [CE]2 [CE] E2 [DF] | [EG]3 z2 [EG] | %17
 [EG]2 [EG] [EA]2 [EA] | [E-G]2 [Ec] [EB]2 [B,E] | [CE]2 E [EG]2 [DF] | E3 z2 |] %21
V:2
 E | x6 | x5 E | x3 E2 E | x5 E | x6 | x6 | x3 E2 x | x6 | D2 B,2 x2 | x6 | D2 B,2 x2 | x6 | x6 | %14
 x6 | x3 E2 x | x6 | x6 | x6 | x2 E x3 | E3 x2 |] %21
V:3
 [E,G,] | [E,B,]2 [E,C] [E,B,]2 [E,A,] | [E,B,]3 [E,B,]2 [E,G,] | [E,B,]2 [D,B,] [E,B,]2 [C,^A,] | %4
 [B,,B,]3 z2 [E,G,] | [E,B,]2 [E,C] (B,E)[E,E] | [E,E]3 [E,B,]2 [E,B,] | %7
 [F,B,]2 [F,D] [F,C]2 [F,^A,] | [B,,B,]3 z2 [B,,B,] | [B,,B,]2 [B,,G,] [B,,F,]2 [B,,A,] | %10
 [E,G,]3 [E,B,]2 [B,,B,] | [B,,B,]2 [B,,G,] [B,,F,]2 [B,,B,] | [E,B,]3 z2 [E,B,] | %13
 [E,B,]2 [E,B,] [E,C]2 [E,C] | [E,B,]3 [E,G,]2 [E,G,] | [C,G,]2 [C,G,] [C,G,]2 [B,,B,] | %16
 [E,B,]3 z2 [E,B,] | [E,B,]2 [E,B,] [E,B,]2 [E,C] | [E,-B,]2 [E,A,] [E,G,]2 [E,G,] | %19
 [C,G,]2 [A,,C] [B,,B,]2 [B,,A,] | [E,G,]3 z2 |] %21
V:4
 x | x6 | x6 | x6 | x6 | x3 E,2 x | x6 | x6 | x6 | x6 | x6 | x6 | x6 | x6 | x6 | x6 | x6 | x6 | %18
 x6 | x6 | x5 |] %21

